X: 1384
T: Farewell To Iveleary
M:C|
L:1/8
N:"collected by F. O'Neill"
B:O'Neill's 1384
Z:"Transcribed by Bob Safranek, rjs@gsp.org"
K:G
c | B>G (3GGG Bcdc  | BGBd eAAc | B>G (3GGG BcdB | dega bg g2 :|
a | bgfg   (eg)(dg) | cBcd eAAg | bgfg      egdg | egfa bgga |
    bgfg   (eg)(dg) | cBcd eAAc | BGGB      cAAg | fdef g2 z |]


